icons/filled/train.svg

<svg xmlns="http://www.w3.org/2000/svg" width="24" height="24" viewBox="0 0 24 24" fill="currentColor"><path d="M11 5c6.634 0 10.853 3.11 10.996 7.754l.004 .246a3 3 0 0 1 -3 3h-16a1 1 0 0 1 -1 -1v-9a1 1 0 0 1 1 -1zm-4 2h-3v3h3zm4 0h-2v3h3v-2.974a19 19 0 0 0 -1 -.026m3.001 .257l-.001 2.743h5.04c-.979 -1.337 -2.689 -2.306 -5.039 -2.743m6.999 10.743a1 1 0 0 1 0 2h-18a1 1 0 0 1 0 -2z"/></svg>

<svg xmlns="http://www.w3.org/2000/svg" width="24" height="24" fill="currentColor"><path d="M11 5c6.634 0 10.853 3.11 10.996 7.754L22 13a3 3 0 0 1-3 3H3a1 1 0 0 1-1-1V6a1 1 0 0 1 1-1zM7 7H4v3h3zm4 0H9v3h3V7.026A19 19 0 0 0 11 7m3.001.257L14 10h5.04c-.979-1.337-2.689-2.306-5.039-2.743M21 18a1 1 0 0 1 0 2H3a1 1 0 0 1 0-2z"/></svg>
